icons/svg/home-variant.svg

﻿<?xml version="1.0" encoding="utf-8"?>
<!DOCTYPE svg PUBLIC "-//W3C//DTD SVG 1.1//EN" "http://www.w3.org/Graphics/SVG/1.1/DTD/svg11.dtd">
<svg xmlns="http://www.w3.org/2000/svg" xmlns:xlink="http://www.w3.org/1999/xlink" version="1.1" baseProfile="full" width="24" height="24" viewBox="0 0 24.00 24.00" enable-background="new 0 0 24.00 24.00" xml:space="preserve">
	<path fill="#000000" fill-opacity="1" stroke-width="0.2" stroke-linejoin="round" d="M 7.99915,19.9985L 4.99939,19.998L 4.99939,11.998L 1.99939,11.998L 11.9994,2.99805L 21.9994,11.998L 18.9994,11.998L 18.9994,19.998L 11.9991,19.9985L 11.9991,13.9985L 7.99915,13.9985L 7.99915,19.9985 Z M 14,14L 14,17L 17,17L 17,14L 14,14 Z "/>
</svg>

<svg xmlns="http://www.w3.org/2000/svg" version="1.1" baseProfile="full" width="24" height="24" viewBox="0 0 24.00 24.00" xml:space="preserve"><path fill="#000" fill-opacity="1" stroke-width=".2" stroke-linejoin="round" d="M8 19.998H5v-8H2l10-9 10 9h-3v8h-7v-6H8v6zM14 14v3h3v-3h-3z"/></svg>
